Sweet-Rainbow/icons/riot.svg

<?xml version="1.0" encoding="UTF-8" standalone="no"?>
<!-- Generator: Gravit.io -->

<svg
   xmlns:dc="http://purl.org/dc/elements/1.1/"
   xmlns:cc="http://creativecommons.org/ns#"
   xmlns:rdf="http://www.w3.org/1999/02/22-rdf-syntax-ns#"
   xmlns:svg="http://www.w3.org/2000/svg"
   xmlns="http://www.w3.org/2000/svg"
   xmlns:sodipodi="http://sodipodi.sourceforge.net/DTD/sodipodi-0.dtd"
   xmlns:inkscape="http://www.inkscape.org/namespaces/inkscape"
   style="isolation:isolate"
   viewBox="0 0 36 36"
   width="48"
   height="48"
   version="1.1"
   id="svg11"
   sodipodi:docname="riot.svg"
   inkscape:version="0.92.4 (5da689c313, 2019-01-14)">
  <metadata
     id="metadata17">
    <rdf:RDF>
      <cc:Work
         rdf:about="">
        <dc:format>image/svg+xml</dc:format>
        <dc:type
           rdf:resource="http://purl.org/dc/dcmitype/StillImage" />
        <dc:title></dc:title>
      </cc:Work>
    </rdf:RDF>
  </metadata>
  <defs
     id="defs15" />
  <sodipodi:namedview
     pagecolor="#ffffff"
     bordercolor="#666666"
     borderopacity="1"
     objecttolerance="10"
     gridtolerance="10"
     guidetolerance="10"
     inkscape:pageopacity="0"
     inkscape:pageshadow="2"
     inkscape:window-width="640"
     inkscape:window-height="480"
     id="namedview13"
     showgrid="false"
     inkscape:zoom="29.365243"
     inkscape:cx="25.325443"
     inkscape:cy="32"
     inkscape:current-layer="svg11"
     units="px" />
  <linearGradient
     id="_lgradient_2"
     x1="0"
     y1="0.5"
     x2="1"
     y2="0.5"
     gradientTransform="matrix(39.07,0,0,46.29,5,0.96)"
     gradientUnits="userSpaceOnUse">
    <stop
       offset="0%"
       stop-opacity="1"
       style="stop-color:rgb(84,51,255)"
       id="stop2" />
    <stop
       offset="51.73913043478261%"
       stop-opacity="1"
       style="stop-color:rgb(32,189,255)"
       id="stop4" />
    <stop
       offset="98.26086956521739%"
       stop-opacity="1"
       style="stop-color:rgb(165,254,203)"
       id="stop6" />
  </linearGradient>
  <g
     id="g825"
     transform="matrix(0.7777017,0,0,0.7777017,-1.0809112,-0.74659364)">
    <path
       id="path9"
       d="M 15.14,5.58 C 16.3,6.31 17,7.59 17,8.96 c 0,1.06 -0.42,2.08 -1.17,2.83 -0.75,0.75 -1.77,1.17 -2.83,1.17 -1.06,0 -2.08,-0.42 -2.83,-1.17 C 9.42,11.04 9,10.02 9,8.96 9,7.9 9.42,6.88 10.17,6.13 10.92,5.38 11.94,4.96 13,4.96 c 0.52,0 1.03,0.1 1.51,0.29 z M 16,23 v 3 h 2 5 3.5 C 30.666,26 34,22.666 34,18.5 34,14.334 30.666,11 26.5,11 H 23 v 0 c -0.552,0 -1,-0.448 -1,-1 v 0 c 0,-0.552 0.448,-1 1,-1 h 3.5 c 5.247,0 9.5,4.253 9.5,9.5 0,5.247 -4.253,9.5 -9.5,9.5 H 16 v 11 c 0.019,1.352 -2.019,1.352 -2,0 V 20 c 0,-0.552 0.448,-1 1,-1 v 0 c 0.552,0 1,0.448 1,1 v 1 q 0,1 0,2 z m 11.85,-4.5 c 0,0.36 -0.14,0.7 -0.4,0.95 -0.25,0.26 -0.59,0.4 -0.95,0.4 h -2.35 v -2.7 h 2.35 c 0.36,0 0.7,0.14 0.95,0.4 0.26,0.25 0.4,0.59 0.4,0.95 z m 3.3,0 c 0,1.23 -0.49,2.42 -1.36,3.29 -0.87,0.87 -2.06,1.36 -3.29,1.36 h -4.65 c -0.552,0 -1,-0.448 -1,-1 v -7.3 c 0,-0.552 0.448,-1 1,-1 h 4.65 c 1.23,0 2.42,0.49 3.29,1.36 0.87,0.87 1.36,2.06 1.36,3.29 z m 2.1,10.884 -0.01,0.006 1.07,1.69 5.31,7.74 c 0,0 0.01,0.01 0.01,0.01 0.28,0.44 0.44,0.96 0.44,1.49 -0.01,0.98 -0.54,1.87 -1.4,2.35 0,0 0,0 -0.01,0.01 l -0.29,0.16 c -0.49,0.28 -1.05,0.42 -1.61,0.41 -1.14,0.02 -2.22,-0.54 -2.86,-1.49 l -6.83,-9.8 H 19 v 8 c 0,0.79 -0.32,1.56 -0.88,2.12 -0.56,0.56 -1.32,0.88 -2.12,0.88 h -2 c -0.8,0 -1.56,-0.32 -2.12,-0.88 C 11.32,41.52 11,40.75 11,39.96 V 16.704 c 0.648,0.169 1.32,0.256 2,0.256 2.12,0 4.16,-0.85 5.66,-2.35 C 20.16,13.11 21,11.08 21,8.96 21,7.931 20.802,6.929 20.431,6 h 3.559 c 0,0 0.01,0 0.01,0 3.68,-0.03 7.24,0.77 9.96,3.25 1.25,1.14 2.26,2.52 2.97,4.05 0.7,1.55 1.07,3.23 1.07,4.92 0.01,3.59 -1.48,7.01 -4.12,9.44 L 33,29.01 Z m 4.66,-0.143 5.08,7.419 c 0.7,1.1 1.08,2.37 1.08,3.66 -0.01,2.43 -1.33,4.66 -3.44,5.84 l -0.29,0.16 c 0,0.01 -0.01,0.01 -0.01,0.01 -1.09,0.61 -2.31,0.93 -3.56,0.92 -2.48,0.02 -4.8,-1.2 -6.19,-3.26 0,0 0,-0.01 -0.01,-0.01 L 24.93,35.96 H 23 v 4 c 0,1.85 -0.74,3.63 -2.05,4.95 -1.31,1.31 -3.09,2.05 -4.95,2.05 h -2 c -1.86,0 -3.64,-0.74 -4.95,-2.05 C 7.74,43.59 7,41.81 7,39.96 V 16.09 15 v -0.752 0 C 5.714,12.792 5,10.914 5,8.96 5,6.84 5.84,4.8 7.34,3.3 8.84,1.8 10.88,0.96 13,0.96 c 1.08,0 2.15,0.21 3.14,0.64 0.05,0.02 0.09,0.04 0.13,0.06 L 16.933,2 h 1.057 1.88 4.11 c 4.68,-0.03 9.22,1.14 12.68,4.29 1.64,1.51 2.97,3.32 3.9,5.34 0.95,2.07 1.44,4.31 1.44,6.59 0.009,4.065 -1.456,7.98 -4.09,11.021 z m -1.302,9.241 0.001,10e-4 c 0.292,0.469 0.148,1.086 -0.32,1.378 l -0.003,0.002 c -0.468,0.292 -1.085,0.149 -1.377,-0.32 l -10e-4,-10e-4 -5.52,-8.22 -0.001,-0.002 c -0.292,-0.468 -0.149,-1.085 0.319,-1.377 l 0.003,-0.002 c 0.468,-0.292 1.086,-0.149 1.378,0.319 l 0.001,0.002 z"
       style="fill:url(#_lgradient_2);fill-rule:evenodd"
       inkscape:connector-curvature="0" />
  </g>
</svg>

<?xml version="1.0" encoding="UTF-8" standalone="no"?><!-- Generator: Gravit.io --><svg xmlns="http://www.w3.org/2000/svg" xmlns:xlink="http://www.w3.org/1999/xlink" style="isolation:isolate" viewBox="0 0 48 48" width="48pt" height="48pt"><linearGradient id="_lgradient_2" x1="0" y1="0.5" x2="1" y2="0.5" gradientTransform="matrix(39.07,0,0,46.29,5,0.96)" gradientUnits="userSpaceOnUse"><stop offset="0%" stop-opacity="1" style="stop-color:rgb(84,51,255)"/><stop offset="51.73913043478261%" stop-opacity="1" style="stop-color:rgb(32,189,255)"/><stop offset="98.26086956521739%" stop-opacity="1" style="stop-color:rgb(165,254,203)"/></linearGradient><path d=" M 15.14 5.58 C 16.3 6.31 17 7.59 17 8.96 C 17 10.02 16.58 11.04 15.83 11.79 C 15.08 12.54 14.06 12.96 13 12.96 C 11.94 12.96 10.92 12.54 10.17 11.79 C 9.42 11.04 9 10.02 9 8.96 C 9 7.9 9.42 6.88 10.17 6.13 C 10.92 5.38 11.94 4.96 13 4.96 C 13.52 4.96 14.03 5.06 14.51 5.25 L 15.14 5.58 L 15.14 5.58 L 15.14 5.58 L 15.14 5.58 L 15.14 5.58 L 15.14 5.58 Z  M 16 23 L 16 26 L 18 26 L 23 26 L 26.5 26 C 30.666 26 34 22.666 34 18.5 C 34 14.334 30.666 11 26.5 11 L 23 11 L 23 11 C 22.448 11 22 10.552 22 10 L 22 10 C 22 9.448 22.448 9 23 9 L 26.5 9 C 31.747 9 36 13.253 36 18.5 C 36 23.747 31.747 28 26.5 28 L 16 28 L 16 39 C 16.019 40.352 13.981 40.352 14 39 L 14 20 C 14 19.448 14.448 19 15 19 L 15 19 C 15.552 19 16 19.448 16 20 L 16 21 Q 16 22 16 23 L 16 23 L 16 23 Z  M 27.85 18.5 C 27.85 18.86 27.71 19.2 27.45 19.45 C 27.2 19.71 26.86 19.85 26.5 19.85 L 24.15 19.85 L 24.15 17.15 L 26.5 17.15 C 26.86 17.15 27.2 17.29 27.45 17.55 C 27.71 17.8 27.85 18.14 27.85 18.5 L 27.85 18.5 L 27.85 18.5 Z  M 31.15 18.5 C 31.15 19.73 30.66 20.92 29.79 21.79 C 28.92 22.66 27.73 23.15 26.5 23.15 L 21.85 23.15 C 21.298 23.15 20.85 22.702 20.85 22.15 L 20.85 14.85 C 20.85 14.298 21.298 13.85 21.85 13.85 L 26.5 13.85 C 27.73 13.85 28.92 14.34 29.79 15.21 C 30.66 16.08 31.15 17.27 31.15 18.5 L 31.15 18.5 L 31.15 18.5 Z  M 33.25 29.384 L 33.24 29.39 L 34.31 31.08 L 39.62 38.82 C 39.62 38.82 39.63 38.83 39.63 38.83 C 39.91 39.27 40.07 39.79 40.07 40.32 C 40.06 41.3 39.53 42.19 38.67 42.67 C 38.67 42.67 38.67 42.67 38.66 42.68 L 38.37 42.84 C 37.88 43.12 37.32 43.26 36.76 43.25 C 35.62 43.27 34.54 42.71 33.9 41.76 L 27.07 31.96 L 19 31.96 L 19 39.96 C 19 40.75 18.68 41.52 18.12 42.08 C 17.56 42.64 16.8 42.96 16 42.96 L 14 42.96 C 13.2 42.96 12.44 42.64 11.88 42.08 C 11.32 41.52 11 40.75 11 39.96 L 11 16.704 C 11.648 16.873 12.32 16.96 13 16.96 C 15.12 16.96 17.16 16.11 18.66 14.61 C 20.16 13.11 21 11.08 21 8.96 C 21 7.931 20.802 6.929 20.431 6 L 23.99 6 C 23.99 6 24 6 24 6 C 27.68 5.97 31.24 6.77 33.96 9.25 C 35.21 10.39 36.22 11.77 36.93 13.3 C 37.63 14.85 38 16.53 38 18.22 C 38.01 21.81 36.52 25.23 33.88 27.66 L 33 29.01 L 33.25 29.384 L 33.25 29.384 L 33.25 29.384 L 33.25 29.384 Z  M 37.91 29.241 L 42.99 36.66 C 43.69 37.76 44.07 39.03 44.07 40.32 C 44.06 42.75 42.74 44.98 40.63 46.16 L 40.34 46.32 C 40.34 46.33 40.33 46.33 40.33 46.33 C 39.24 46.94 38.02 47.26 36.77 47.25 C 34.29 47.27 31.97 46.05 30.58 43.99 C 30.58 43.99 30.58 43.98 30.57 43.98 L 24.93 35.96 L 23 35.96 L 23 39.96 C 23 41.81 22.26 43.59 20.95 44.91 C 19.64 46.22 17.86 46.96 16 46.96 L 14 46.96 C 12.14 46.96 10.36 46.22 9.05 44.91 C 7.74 43.59 7 41.81 7 39.96 L 7 16.09 L 7 15 L 7 14.248 L 7 14.248 C 5.714 12.792 5 10.914 5 8.96 C 5 6.84 5.84 4.8 7.34 3.3 C 8.84 1.8 10.88 0.96 13 0.96 C 14.08 0.96 15.15 1.17 16.14 1.6 C 16.19 1.62 16.23 1.64 16.27 1.66 L 16.933 2 L 17.99 2 L 19.87 2 L 23.98 2 C 28.66 1.97 33.2 3.14 36.66 6.29 C 38.3 7.8 39.63 9.61 40.56 11.63 C 41.51 13.7 42 15.94 42 18.22 C 42.009 22.285 40.544 26.2 37.91 29.241 L 37.91 29.241 L 37.91 29.241 L 37.91 29.241 Z  M 36.608 38.482 L 36.609 38.483 C 36.901 38.952 36.757 39.569 36.289 39.861 L 36.286 39.863 C 35.818 40.155 35.201 40.012 34.909 39.543 L 34.908 39.542 L 29.388 31.322 L 29.387 31.32 C 29.095 30.852 29.238 30.235 29.706 29.943 L 29.709 29.941 C 30.177 29.649 30.795 29.792 31.087 30.26 L 31.088 30.262 L 36.608 38.482 Z " fill-rule="evenodd" fill="url(#_lgradient_2)"/></svg>
